X: 41544
T: Underhill, The
R: reel
M: 4/4
K: Gmajor
ge|:dBBA GABG|A2 BG ABde|dBBA GABG|1 AGAB G2 ge:|2 AGAB G2 g2||
|:faea fede|faea faea|faea fedB|1 AGAB G2 g2:|2 AGAB G2||

